modules/hawcons-filled/icons/icon-53-notebook-list.svg

<svg width="32" height="32" xmlns="http://www.w3.org/2000/svg"><path d="M8.997 5C7.894 5 7 5.89 7 7.004v20.992C7 29.103 7.89 30 8.997 30h15.006C25.106 30 26 29.11 26 27.996V7.004C26 5.897 25.11 5 24.003 5H8.997zM15 13v1h8v-1h-8zm-5-1v3h3v-3h-3zm1 1v1h1v-1h-1zm-1 4v3h3v-3h-3zm1 1v1h1v-1h-1zm4 0v1h8v-1h-8zm-5 4v3h3v-3h-3zm1 1v1h1v-1h-1zm4 0v1h8v-1h-8zM10 3v2h1V3h-1zm4 0v2h1V3h-1zm4 0v2h1V3h-1zm4 0v2h1V3h-1zM10 5v2h1V5h-1zm4 0v2h1V5h-1zm4 0v2h1V5h-1zm4 0v2h1V5h-1z" fill="#929292" fill-rule="evenodd"/></svg>

<?xml version="1.0" encoding="UTF-8" standalone="no"?>
<svg width="32px" height="32px" viewBox="0 0 32 32" version="1.1" xmlns="http://www.w3.org/2000/svg" xmlns:xlink="http://www.w3.org/1999/xlink" xmlns:sketch="http://www.bohemiancoding.com/sketch/ns">
    <!-- Generator: Sketch 3.0.3 (7891) - http://www.bohemiancoding.com/sketch -->
    <title>icon 53 notebook list</title>
    <desc>Created with Sketch.</desc>
    <defs></defs>
    <g id="Page-1" stroke="none" stroke-width="1" fill="none" fill-rule="evenodd" sketch:type="MSPage">
        <g id="icon-53-notebook-list" sketch:type="MSArtboardGroup" fill="#929292">
            <path d="M8.99742191,5 C7.89427625,5 7,5.88976324 7,7.00359486 L7,27.9964051 C7,29.10296 7.89092539,30 8.99742191,30 L24.0025781,30 C25.1057238,30 26,29.1102368 26,27.9964051 L26,7.00359486 C26,5.89703997 25.1090746,5 24.0025781,5 L8.99742191,5 L8.99742191,5 Z M15,13 L15,14 L23,14 L23,13 L15,13 L15,13 Z M10,12 L10,15 L13,15 L13,12 L10,12 L10,12 Z M11,13 L11,14 L12,14 L12,13 L11,13 L11,13 Z M10,17 L10,20 L13,20 L13,17 L10,17 L10,17 Z M11,18 L11,19 L12,19 L12,18 L11,18 L11,18 Z M15,18 L15,19 L23,19 L23,18 L15,18 L15,18 Z M10,22 L10,25 L13,25 L13,22 L10,22 L10,22 Z M11,23 L11,24 L12,24 L12,23 L11,23 L11,23 Z M15,23 L15,24 L23,24 L23,23 L15,23 L15,23 Z M10,3 L10,5 L11,5 L11,3 L10,3 L10,3 Z M14,3 L14,5 L15,5 L15,3 L14,3 L14,3 Z M18,3 L18,5 L19,5 L19,3 L18,3 L18,3 Z M22,3 L22,5 L23,5 L23,3 L22,3 L22,3 Z M10,5 L10,7 L11,7 L11,5 L10,5 L10,5 Z M14,5 L14,7 L15,7 L15,5 L14,5 L14,5 Z M18,5 L18,7 L19,7 L19,5 L18,5 L18,5 Z M22,5 L22,7 L23,7 L23,5 L22,5 L22,5 Z" id="notebook-list" sketch:type="MSShapeGroup"></path>
        </g>
    </g>
</svg>
